X:517
T: Was braucht man auf dem Bauerndorf? (222), S. 479
N: T0405
O: Luxemburg
S: Singendes Volk, Esch-Alzette, 1937 posth.]
N: Straen, fff Witry, 14.2.1933
R: Berufslied]
M: 2/4
L: 1/8
K: C
G | cGGG | AGG
B | ccAB | c2z
B | BABc | d2z
B | BABc | d2z
B | BABc | dd
ee | dcBA | AGG
G | GGGG | ecc
c | ddBB | c2z

